Numix/32/actions/document-save-as.svg

<?xml version="1.0" encoding="UTF-8" standalone="no"?>
<svg
   xmlns:dc="http://purl.org/dc/elements/1.1/"
   xmlns:cc="http://creativecommons.org/ns#"
   xmlns:rdf="http://www.w3.org/1999/02/22-rdf-syntax-ns#"
   xmlns:svg="http://www.w3.org/2000/svg"
   xmlns="http://www.w3.org/2000/svg"
   xmlns:sodipodi="http://sodipodi.sourceforge.net/DTD/sodipodi-0.dtd"
   xmlns:inkscape="http://www.inkscape.org/namespaces/inkscape"
   width="32"
   height="32"
   viewBox="0 0 32 32"
   id="svg2"
   version="1.1"
   inkscape:version="0.91 r13725"
   sodipodi:docname="document-save-as.svg">
  <metadata
     id="metadata16">
    <rdf:RDF>
      <cc:Work
         rdf:about="">
        <dc:format>image/svg+xml</dc:format>
        <dc:type
           rdf:resource="http://purl.org/dc/dcmitype/StillImage" />
      </cc:Work>
    </rdf:RDF>
  </metadata>
  <defs
     id="defs14" />
  <sodipodi:namedview
     pagecolor="#ffffff"
     bordercolor="#666666"
     borderopacity="1"
     objecttolerance="10"
     gridtolerance="10"
     guidetolerance="10"
     inkscape:pageopacity="0"
     inkscape:pageshadow="2"
     inkscape:window-width="1366"
     inkscape:window-height="704"
     id="namedview12"
     showgrid="false"
     inkscape:zoom="21.959671"
     inkscape:cx="16.065003"
     inkscape:cy="5.0708743"
     inkscape:window-x="0"
     inkscape:window-y="27"
     inkscape:window-maximized="1"
     inkscape:current-layer="svg2" />
  <path
     style="fill:#268bd2;fill-rule:evenodd"
     d="M 8.222656 0 L 23.777344 0 C 28.445312 0 30 1.601562 30 6.398438 L 30 25.601562 C 30 30.398438 28.445312 32 23.777344 32 L 8.222656 32 C 3.554688 32 2 30.398438 2 25.601562 L 2 6.398438 C 2 1.601562 3.554688 0 8.222656 0 Z "
     id="path4" />
  <g
     style="fill:#fff"
     id="g6">
    <path
       style="fill-opacity:0.30199998;fill-rule:evenodd"
       d="M 8.222656,0 23.777344,0 C 28.445312,0 30,1.601562 30,6.398438 l 0,12.800781 C 30,24 28.445312,26 23.777344,26 L 8.222656,26 C 3.554688,26 2,24 2,19.199219 L 2,6.398438 C 2,1.601562 3.554688,0 8.222656,0 Z"
       id="path8"
       inkscape:connector-curvature="0"
       sodipodi:nodetypes="sssssssss" />
    <path
       style="fill-opacity:.902"
       d="M 12 4 L 12 6 L 20 6 L 20 4 Z M 12 8 L 12 12 L 20 12 L 20 8 Z M 7 14 L 16 24 L 25 14 Z "
       id="path10" />
  </g>
</svg>

<svg xmlns="http://www.w3.org/2000/svg" viewBox="0 0 32 32">
 <path d="m 8.223 0 l 15.555 0 c 4.668 0 6.223 1.602 6.223 6.398 l 0 19.2 c 0 4.797 -1.555 6.398 -6.223 6.398 l -15.555 0 c -4.668 0 -6.223 -1.602 -6.223 -6.398 l 0 -19.2 c 0 -4.797 1.555 -6.398 6.223 -6.398 Z" style="fill:#268bd2;fill-rule:evenodd"/>
 <g style="fill:#fff">
  <path d="m 8.223 0 15.555 0 c 4.668 0 6.223 1.602 6.223 6.398 l 0 12.801 c 0 4.801 -1.555 6.801 -6.223 6.801 l -15.555 0 c -4.668 0 -6.223 -2 -6.223 -6.801 l 0 -12.801 c 0 -4.797 1.555 -6.398 6.223 -6.398" style="fill-opacity:0.302;fill-rule:evenodd"/>
  <path d="m 12 4 l 0 2 l 8 0 l 0 -2 m -8 4 l 0 4 l 8 0 l 0 -4 m -13 6 l 9 10 l 9 -10 Z" style="fill-opacity:0.902"/>
 </g>
</svg>
